packages/core/src/svgs/mm.svg

<svg width="24" height="24" viewBox="0 0 24 24" fill="none" xmlns="http://www.w3.org/2000/svg">
<g clip-path="url(#clip0_31_13965)">
<path d="M0 0H24V24H0V0Z" fill="#F0F3FA"/>
<path fill-rule="evenodd" clip-rule="evenodd" d="M12.0001 19.2858C16.0239 19.2858 19.2858 16.0239 19.2858 12.0001C19.2858 7.97621 16.0239 4.71436 12.0001 4.71436C7.97621 4.71436 4.71436 7.97621 4.71436 12.0001C4.71436 16.0239 7.97621 19.2858 12.0001 19.2858ZM12.0001 18.8572C15.7874 18.8572 18.8572 15.7874 18.8572 12.0001C18.8572 8.21278 15.7874 5.14293 12.0001 5.14293C8.21278 5.14293 5.14293 8.21278 5.14293 12.0001C5.14293 15.7874 8.21278 18.8572 12.0001 18.8572Z" fill="black"/>
<path fill-rule="evenodd" clip-rule="evenodd" d="M16.2858 8.57129V15.4284H15.8572V9.857L14.1429 11.9583V15.4284H10.6865L13.7144 11.723V9.923L11.0169 13.2624L8.14293 9.92257V15.4284H7.71436V8.57129L11.0186 12.461L14.1429 8.57129V11.2096L16.2858 8.57129ZM13.7144 12.4816L11.6486 14.9999H13.7144V12.4816Z" fill="black"/>
</g>
<defs>
<clipPath id="clip0_31_13965">
<rect width="24" height="24" fill="white"/>
</clipPath>
</defs>
</svg>

<svg xmlns="http://www.w3.org/2000/svg" width="24" height="24" fill="none" viewBox="0 0 24 24"><g clip-path="url(#a)"><path fill="#F0F3FA" d="M0 0h24v24H0z"/><path fill="#000" fill-rule="evenodd" d="M12 19.286a7.286 7.286 0 1 0 0-14.572 7.286 7.286 0 0 0 0 14.572m0-.429a6.857 6.857 0 1 0 0-13.714 6.857 6.857 0 1 0 0 13.714" clip-rule="evenodd"/><path fill="#000" fill-rule="evenodd" d="M16.286 8.571v6.857h-.429V9.857l-1.714 2.101v3.47h-3.456l3.027-3.705v-1.8l-2.697 3.34-2.874-3.34v5.505h-.429V8.571l3.305 3.89 3.124-3.89v2.639zm-2.572 3.91L11.65 15h2.065z" clip-rule="evenodd"/></g><defs><clipPath id="a"><path fill="#fff" d="M0 0h24v24H0z"/></clipPath></defs></svg>
